icons/bandaid.svg

<svg xmlns="http://www.w3.org/2000/svg" viewBox="0 0 24 24" fill="currentColor">
  <path d="M18.8697 5.13023c-1.3071-1.3071-3.3322-1.3071-4.6393 0l-1.2239 1.22385 4.5983 4.68042 1.2649-1.26492c1.3071-1.3071 1.3071-3.33224 0-4.63935Zm-.733 7.49367 1.7936-1.7937c1.8929-1.89285 1.8929-4.86773 0-6.76063-1.8928-1.89289-4.8677-1.89289-6.7606 0L4.06969 13.1696c-1.89005 1.89-1.89288 4.8588-.0085 6.7521 1.80666 1.917 4.88897 1.8887 6.76921.0086l1.689-1.6891c.0053-.0051.0105-.0102.0157-.0155l.0059-.0061 5.5833-5.5833.0014-.0014c.0037-.0036.0074-.0073.011-.011Zm-1.5926-.5287-4.5983-4.68042-4.63093 4.63092 4.68043 4.5983 4.5488-4.5488Zm-11.41375 2.135 1.12382-1.1238 4.68043 4.5983-1.16491 1.1649c-1.31692 1.3169-3.42802 1.2915-4.62251.0174l-.00827-.0089-.00856-.0085c-1.3071-1.3071-1.3071-3.3323 0-4.6394Z"/>
</svg>

<svg width="24" height="24" viewBox="0 0 24 24" fill="none" xmlns="http://www.w3.org/2000/svg">
<path fill-rule="evenodd" clip-rule="evenodd" d="M18.8697 5.13023C17.5626 3.82313 15.5375 3.82313 14.2304 5.13023L13.0065 6.35408L17.6048 11.0345L18.8697 9.76958C20.1768 8.46248 20.1768 6.43734 18.8697 5.13023ZM18.1367 12.6239L19.9303 10.8302C21.8232 8.93735 21.8232 5.96247 19.9303 4.06957C18.0375 2.17668 15.0626 2.17668 13.1697 4.06957L4.06969 13.1696C2.17964 15.0596 2.17681 18.0284 4.06119 19.9217C5.86785 21.8387 8.95016 21.8104 10.8304 19.9303L12.5194 18.2412C12.5247 18.2361 12.5299 18.231 12.5351 18.2257L12.541 18.2196L18.1243 12.6363C18.1248 12.6358 18.1253 12.6353 18.1257 12.6349C18.1294 12.6313 18.1331 12.6276 18.1367 12.6239ZM16.5441 12.0952L11.9458 7.41478L7.31487 12.0457L11.9953 16.644L16.5441 12.0952ZM5.13035 14.2302L6.25417 13.1064L10.9346 17.7047L9.76969 18.8696C8.45277 20.1865 6.34167 20.1611 5.14718 18.887L5.13891 18.8781L5.13035 18.8696C3.82325 17.5625 3.82325 15.5373 5.13035 14.2302Z" fill="black"/>
</svg>
